;FLAVOR:Marlin
;TIME:2796
;Filament used: 2.95116m
;Layer height: 0.15






;POSTPROCESSED
;ChangeAtZ instances: 1
;Generated with Cura_SteamEngine 3.6.0
M140 S60
M105
M190 S60
M104 S200
M105
M109 S200
M82 ;absolute extrusion mode
G21 ;metric values
G90 ;absolute positioning
M82 ;set extruder to absolute mode
;M107 ;start with the fan off
M106 ;fan on since the beginning instead
G28 X0 Y0 ;move X/Y to min endstops
G28 Z0 ;move Z to min endstops
G29 ; auto leveling
G1 Z15.0 F9000 ;move the platform down 15mm
G92 E0 ;zero the extruded length
G1 F200 E3 ;extrude 3mm of feed stock
G92 E0 ;zero the extruded length again
G1 F9000
;Put printing message on LCD screen
M117 ~Printing...
G92 E0
G1 F1500 E-6.5
;LAYER_COUNT:200






;LAYER:0
M106 S255
G0 F3600 X80.222 Y108.834 Z0.3
;TYPE:SKIRT
G1 F1500 E0
G1 F1800 X80.87 Y108.383 E0.03939
G1 X81.561 Y107.999 E0.07883
G1 X82.286 Y107.687 E0.11821
G1 X83.039 Y107.45 E0.15759
G1 X83.813 Y107.291 E0.19701
G1 X84.598 Y107.21 E0.23638
G1 X85 Y107.2 E0.25644
G1 X115 Y107.2 E1.75315
G1 X115.789 Y107.24 E1.79256
G1 X116.569 Y107.359 E1.83193
G1 X117.334 Y107.557 E1.87135
G1 X118.074 Y107.831 E1.91072
G1 X118.783 Y108.179 E1.95012
G1 X119.454 Y108.597 E1.98957
G1 X120.078 Y109.08 E2.02893
G1 X120.651 Y109.623 E2.06832
G1 X121.166 Y110.222 E2.10773
G1 X121.617 Y110.87 E2.14712
G1 X122.001 Y111.561 E2.18656
G1 X122.313 Y112.286 E2.22593
G1 X122.55 Y113.039 E2.26532
G1 X122.709 Y113.813 E2.30474
G1 X122.79 Y114.598 E2.34411
G1 X122.8 Y115 E2.36417
G1 X122.8 Y145 E3.86088
G1 X122.76 Y145.789 E3.90029
G1 X122.641 Y146.569 E3.93966
G1 X122.443 Y147.334 E3.97908
G1 X122.169 Y148.074 E4.01845
G1 X121.821 Y148.783 E4.05785
G1 X121.403 Y149.454 E4.09729
G1 X120.92 Y150.078 E4.13666
G1 X120.377 Y150.651 E4.17605
G1 X119.778 Y151.166 E4.21546
G1 X119.13 Y151.617 E4.25484
G1 X118.439 Y152.001 E4.29428
G1 X117.714 Y152.313 E4.33366
G1 X116.961 Y152.55 E4.37305
G1 X116.187 Y152.709 E4.41247
G1 X115.402 Y152.79 E4.45184
G1 X115 Y152.8 E4.4719
G1 X85 Y152.8 E5.96861
G1 X84.211 Y152.76 E6.00802
G1 X83.431 Y152.641 E6.04739
G1 X82.666 Y152.443 E6.08681
G1 X81.926 Y152.169 E6.12618
G1 X81.217 Y151.821 E6.16558
G1 X80.546 Y151.403 E6.20502
G1 X79.922 Y150.92 E6.24439
G1 X79.349 Y150.377 E6.28377
G1 X78.834 Y149.778 E6.32318
G1 X78.383 Y149.13 E6.36257
G1 X77.999 Y148.439 E6.40201
G1 X77.687 Y147.714 E6.44139
G1 X77.45 Y146.961 E6.48077
G1 X77.291 Y146.187 E6.5202
G1 X77.21 Y145.402 E6.55957
G1 X77.2 Y145 E6.57963
G1 X77.2 Y115 E8.07634
G1 X77.24 Y114.211 E8.11575
G1 X77.359 Y113.431 E8.15511
G1 X77.557 Y112.666 E8.19454
G1 X77.831 Y111.926 E8.23391
G1 X78.179 Y111.217 E8.27331
G1 X78.597 Y110.546 E8.31275
G1 X79.08 Y109.922 E8.35212
G1 X79.623 Y109.349 E8.3915
G1 X80.222 Y108.834 E8.43091
G0 F3600 X80.611 Y109.042
G1 F1800 X81.253 Y108.619 E8.46927
G1 X81.936 Y108.264 E8.50767
G1 X82.651 Y107.983 E8.546
G1 X83.393 Y107.777 E8.58442
G1 X84.151 Y107.649 E8.62277
G1 X85 Y107.6 E8.6652
G1 X115 Y107.6 E10.1619
G1 X115.768 Y107.64 E10.20027
G1 X116.528 Y107.759 E10.23865
G1 X117.271 Y107.957 E10.27701
G1 X117.99 Y108.231 E10.3154
G1 X118.676 Y108.578 E10.35375
G1 X119.323 Y108.994 E10.39213
G1 X119.923 Y109.475 E10.43049
G1 X120.47 Y110.016 E10.46888
G1 X120.958 Y110.611 E10.50727
G1 X121.381 Y111.253 E10.54563
G1 X121.736 Y111.936 E10.58403
G1 X122.017 Y112.651 E10.62236
G1 X122.223 Y113.393 E10.66077
G1 X122.351 Y114.151 E10.69913
G1 X122.4 Y115 E10.74155
G1 X122.4 Y145 E12.23826
G1 X122.36 Y145.768 E12.27663
G1 X122.241 Y146.528 E12.31501
G1 X122.043 Y147.271 E12.35337
G1 X121.769 Y147.99 E12.39176
G1 X121.422 Y148.676 E12.43011
G1 X121.006 Y149.323 E12.46849
G1 X120.525 Y149.923 E12.50685
G1 X119.984 Y150.47 E12.54523
G1 X119.389 Y150.958 E12.58363
G1 X118.747 Y151.381 E12.62198
G1 X118.064 Y151.736 E12.66039
G1 X117.349 Y152.017 E12.69871
G1 X116.607 Y152.223 E12.73713
G1 X115.849 Y152.351 E12.77548
G1 X115 Y152.4 E12.81791
G1 X85 Y152.4 E14.31462
G1 X84.232 Y152.36 E14.35298
G1 X83.472 Y152.241 E14.39136
G1 X82.729 Y152.043 E14.42973
G1 X82.01 Y151.769 E14.46811
G1 X81.324 Y151.422 E14.50647
G1 X80.677 Y151.006 E14.54484
G1 X80.077 Y150.525 E14.58321
G1 X79.53 Y149.984 E14.62159
G1 X79.042 Y149.389 E14.65998
G1 X78.619 Y148.747 E14.69834
G1 X78.264 Y148.064 E14.73674
G1 X77.983 Y147.349 E14.77507
G1 X77.777 Y146.607 E14.81349
G1 X77.649 Y145.849 E14.85184
G1 X77.6 Y145 E14.89427
G1 X77.6 Y115 E16.39097
G1 X77.64 Y114.232 E16.42934
G1 X77.759 Y113.472 E16.46772
G1 X77.957 Y112.729 E16.50608
G1 X78.231 Y112.01 E16.54447
G1 X78.578 Y111.324 E16.58282
G1 X78.994 Y110.677 E16.6212
G1 X79.475 Y110.077 E16.65956
G1 X80.016 Y109.53 E16.69795
G1 X80.611 Y109.042 E16.73634
G0 F3600 X80.998 Y109.257
G1 F1800 X81.634 Y108.862 E16.77369
G1 X82.308 Y108.538 E16.811
G1 X83.013 Y108.288 E16.84832
G1 X83.741 Y108.114 E16.88566
G1 X84.483 Y108.019 E16.92298
G1 X85 Y108 E16.94879
G1 X115 Y108 E18.4455
G1 X115.747 Y108.04 E18.48282
G1 X116.485 Y108.159 E18.52012
G1 X117.207 Y108.357 E18.55747
G1 X117.903 Y108.63 E18.59477
G1 X118.566 Y108.977 E18.6321
G1 X119.189 Y109.392 E18.66945
G1 X119.763 Y109.871 E18.70674
G1 X120.284 Y110.408 E18.74407
G1 X120.743 Y110.998 E18.78137
G1 X121.138 Y111.634 E18.81872
G1 X121.462 Y112.308 E18.85603
G1 X121.712 Y113.013 E18.89334
G1 X121.886 Y113.741 E18.93069
G1 X121.981 Y114.483 E18.96801
G1 X122 Y115 E18.99382
G1 X122 Y145 E20.49053
G1 X121.96 Y145.747 E20.52785
G1 X121.841 Y146.485 E20.56514
G1 X121.643 Y147.207 E20.60249
G1 X121.37 Y147.903 E20.63979
G1 X121.023 Y148.566 E20.67712
G1 X120.608 Y149.189 E20.71447
G1 X120.129 Y149.763 E20.75177
G1 X119.592 Y150.284 E20.7891
G1 X119.002 Y150.743 E20.82639
G1 X118.366 Y151.138 E20.86374
G1 X117.692 Y151.462 E20.90105
G1 X116.987 Y151.712 E20.93837
G1 X116.259 Y151.886 E20.97571
G1 X115.517 Y151.981 E21.01303
G1 X115 Y152 E21.03885
G1 X85 Y152 E22.53555
G1 X84.253 Y151.96 E22.57287
G1 X83.515 Y151.841 E22.61017
G1 X82.793 Y151.643 E22.64752
G1 X82.097 Y151.37 E22.68482
G1 X81.434 Y151.023 E22.72215
G1 X80.811 Y150.608 E22.7595
G1 X80.237 Y150.129 E22.7968
G1 X79.716 Y149.592 E22.83412
G1 X79.257 Y149.002 E22.87142
G1 X78.862 Y148.366 E22.90877
G1 X78.538 Y147.692 E22.94608
G1 X78.288 Y146.987 E22.9834
G1 X78.114 Y146.259 E23.02074
G1 X78.019 Y145.517 E23.05806
G1 X78 Y145 E23.08387
G1 X78 Y115 E24.58058
G1 X78.04 Y114.253 E24.6179
G1 X78.159 Y113.515 E24.65519
G1 X78.357 Y112.793 E24.69254
G1 X78.63 Y112.097 E24.72984
G1 X78.977 Y111.434 E24.76718
G1 X79.392 Y110.811 E24.80452
G1 X79.871 Y110.237 E24.84182
G1 X80.408 Y109.716 E24.87915
G1 X80.998 Y109.257 E24.91644
G0 F3600 X80.799 Y109.909
G1 F1800 X81.384 Y109.479 E24.95267
G1 X82.013 Y109.115 E24.98892
G1 X82.678 Y108.822 E25.02518
G1 X83.371 Y108.604 E25.06142
G1 X84.083 Y108.464 E25.09762
G1 X85 Y108.4 E25.14348
G1 X115 Y108.4 E26.64019
G1 X115.725 Y108.44 E26.67642
G1 X116.442 Y108.559 E26.71268
G1 X117.141 Y108.757 E26.74892
G1 X117.814 Y109.03 E26.78515
G1 X118.453 Y109.375 E26.82138
G1 X119.05 Y109.789 E26.85763
G1 X119.598 Y110.265 E26.89384
G1 X120.091 Y110.799 E26.9301
G1 X120.521 Y111.384 E26.96632
G1 X120.885 Y112.013 E27.00258
G1 X121.178 Y112.678 E27.03884
G1 X121.396 Y113.371 E27.07508
G1 X121.536 Y114.083 E27.11128
G1 X121.6 Y115 E27.15714
G1 X121.6 Y145 E28.65385
G1 X121.56 Y145.725 E28.69007
G1 X121.441 Y146.442 E28.72633
G1 X121.243 Y147.141 E28.76258
G1 X120.97 Y147.814 E28.79881
G1 X120.625 Y148.453 E28.83504
G1 X120.211 Y149.05 E28.87129
G1 X119.735 Y149.598 E28.9075
G1 X119.201 Y150.091 E28.94376
G1 X118.616 Y150.521 E28.97998
G1 X117.987 Y150.885 E29.01624
G1 X117.322 Y151.178 E29.05249
G1 X116.629 Y151.396 E29.08874
G1 X115.917 Y151.536 E29.12494
G1 X115 Y151.6 E29.1708
G1 X85 Y151.6 E30.66751
G1 X84.275 Y151.56 E30.70373
G1 X83.558 Y151.441 E30.73999
G1 X82.859 Y151.243 E30.77624
G1 X82.186 Y150.97 E30.81247
G1 X81.547 Y150.625 E30.8487
G1 X80.95 Y150.211 E30.88495
G1 X80.402 Y149.735 E30.92116
G1 X79.909 Y149.201 E30.95742
G1 X79.479 Y148.616 E30.99364
G1 X79.115 Y147.987 E31.0299
G1 X78.822 Y147.322 E31.06615
G1 X78.604 Y146.629 E31.1024
G1 X78.464 Y145.917 E31.1386
G1 X78.4 Y145 E31.18446
G1 X78.4 Y115 E32.68116
G1 X78.44 Y114.275 E32.71739
G1 X78.559 Y113.558 E32.75365
G1 X78.757 Y112.859 E32.7899
G1 X79.03 Y112.186 E32.82613
G1 X79.375 Y111.547 E32.86236
G1 X79.789 Y110.95 E32.8986
G1 X80.265 Y110.402 E32.93482
G1 X80.799 Y109.909 E32.97108
G0 F3600 X81.189 Y110.109
G1 F1800 X81.768 Y109.709 E33.00619
G1 X82.389 Y109.377 E33.04132
G1 X83.043 Y109.117 E33.07643
G1 X83.723 Y108.933 E33.11158
G1 X84.419 Y108.827 E33.1467
G1 X85 Y108.8 E33.17572
G1 X115 Y108.8 E34.67242
G1 X115.703 Y108.84 E34.70755
G1 X116.397 Y108.959 E34.74268
G1 X117.072 Y109.157 E34.77778
G1 X117.721 Y109.429 E34.81288
G1 X118.335 Y109.774 E34.84802
G1 X118.906 Y110.185 E34.88312
G1 X119.427 Y110.659 E34.91826
G1 X119.891 Y111.189 E34.9534
G1 X120.291 Y111.768 E34.98851
G1 X120.623 Y112.389 E35.02365
G1 X120.883 Y113.043 E35.05876
G1 X121.067 Y113.723 E35.0939
G1 X121.173 Y114.419 E35.12903
G1 X121.2 Y115 E35.15804
G1 X121.2 Y145 E36.65475
G1 X121.16 Y145.703 E36.68988
G1 X121.041 Y146.397 E36.72501
G1 X120.843 Y147.072 E36.7601
G1 X120.571 Y147.721 E36.79521
G1 X120.226 Y148.335 E36.83035
G1 X119.815 Y148.906 E36.86545
G1 X119.341 Y149.427 E36.90059
G1 X118.811 Y149.891 E36.93573
G1 X118.232 Y150.291 E36.97084
G1 X117.611 Y150.623 E37.00597
G1 X116.957 Y150.883 E37.04108
G1 X116.277 Y151.067 E37.07623
G1 X115.581 Y151.173 E37.11135
G1 X115 Y151.2 E37.14037
G1 X85 Y151.2 E38.63708
G1 X84.297 Y151.16 E38.67221
G1 X83.603 Y151.041 E38.70734
G1 X82.928 Y150.843 E38.74243
G1 X82.279 Y150.571 E38.77754
G1 X81.665 Y150.226 E38.81268
G1 X81.094 Y149.815 E38.84777
G1 X80.573 Y149.341 E38.88292
G1 X80.109 Y148.811 E38.91806
G1 X79.709 Y148.232 E38.95317
G1 X79.377 Y147.611 E38.9883
G1 X79.117 Y146.957 E39.02341
G1 X78.933 Y146.277 E39.05856
G1 X78.827 Y145.581 E39.09368
G1 X78.8 Y145 E39.1227
G1 X78.8 Y115 E40.6194
G1 X78.84 Y114.297 E40.65453
G1 X78.959 Y113.603 E40.68966
G1 X79.157 Y112.928 E40.72476
G1 X79.429 Y112.279 E40.75987
G1 X79.774 Y111.665 E40.795
G1 X80.185 Y111.094 E40.8301
G1 X80.659 Y110.573 E40.86524
G1 X81.189 Y110.109 E40.90039
G0 F3600 X81.578 Y110.317
G1 F1800 X82.15 Y109.948 E40.93435
G1 X82.762 Y109.649 E40.96833
G1 X83.404 Y109.424 E41.00227
G1 X84.069 Y109.275 E41.03627
G1 X85 Y109.2 E41.08286
G1 X115 Y109.2 E42.57957
G1 X115.68 Y109.24 E42.61355
G1 X116.35 Y109.359 E42.6475
G1 X117.002 Y109.556 E42.68149
G1 X117.626 Y109.828 E42.71545
G1 X118.214 Y110.172 E42.74943
G1 X118.758 Y110.582 E42.78342
G1 X119.249 Y111.053 E42.81736
G1 X119.683 Y111.578 E42.85135
G1 X120.052 Y112.15 E42.88531
G1 X120.351 Y112.762 E42.91929
G1 X120.576 Y113.404 E42.95323
G1 X120.725 Y114.069 E42.98723
G1 X120.8 Y115 E43.03383
G1 X120.8 Y145 E44.53053
G1 X120.76 Y145.68 E44.56452
G1 X120.641 Y146.35 E44.59846
G1 X120.444 Y147.002 E44.63245
G1 X120.172 Y147.626 E44.66641
G1 X119.828 Y148.214 E44.70039
G1 X119.418 Y148.758 E44.73438
G1 X118.947 Y149.249 E44.76832
G1 X118.422 Y149.683 E44.80231
G1 X117.85 Y150.052 E44.83627
G1 X117.238 Y150.351 E44.87025
G1 X116.596 Y150.576 E44.90419
G1 X115.931 Y150.725 E44.93819
G1 X115 Y150.8 E44.98479
G1 X85 Y150.8 E46.48149
G1 X84.32 Y150.76 E46.51548
G1 X83.65 Y150.641 E46.54943
G1 X82.998 Y150.444 E46.58341
G1 X82.374 Y150.172 E46.61737
G1 X81.786 Y149.828 E46.65135
G1 X81.242 Y149.418 E46.68534
G1 X80.751 Y148.947 E46.71928
G1 X80.317 Y148.422 E46.75327
G1 X79.948 Y147.85 E46.78723
G1 X79.649 Y147.238 E46.82121
G1 X79.424 Y146.596 E46.85515
G1 X79.275 Y145.931 E46.88915
G1 X79.2 Y145 E46.93575
G1 X79.2 Y115 E48.43245
G1 X79.24 Y114.32 E48.46644
G1 X79.359 Y113.65 E48.50039
G1 X79.556 Y112.998 E48.53437
G1 X79.828 Y112.374 E48.56833
G1 X80.172 Y111.786 E48.60231
G1 X80.582 Y111.242 E48.6363
G1 X81.053 Y110.751 E48.67024
G1 X81.578 Y110.317 E48.70423
G0 F3600 X81.445 Y110.935
G1 F1800 X81.965 Y110.534 E48.73699
G1 X82.529 Y110.198 E48.76974
G1 X83.131 Y109.934 E48.80254
G1 X83.76 Y109.744 E48.83532
G1 X84.407 Y109.633 E48.86807
G1 X85 Y109.6 E48.8977
G1 X115 Y109.6 E50.3944
G1 X115.656 Y109.64 E50.42719
G1 X116.302 Y109.759 E50.45996
G1 X116.929 Y109.956 E50.49275
G1 X117.527 Y110.228 E50.52553
G1 X118.088 Y110.57 E50.55831
G1 X118.603 Y110.978 E50.59109
G1 X119.065 Y111.445 E50.62386
G1 X119.466 Y111.965 E50.65662
G1 X119.802 Y112.529 E50.68937
G1 X120.066 Y113.131 E50.72217
G1 X120.256 Y113.76 E50.75495
G1 X120.367 Y114.407 E50.7877
G1 X120.4 Y115 E50.81733
G1 X120.4 Y145 E52.31404
G1 X120.36 Y145.656 E52.34683
G1 X120.241 Y146.302 E52.3796
G1 X120.044 Y146.929 E52.41239
G1 X119.772 Y147.527 E52.44516
G1 X119.43 Y148.088 E52.47794
G1 X119.022 Y148.603 E52.51072
G1 X118.555 Y149.065 E52.54349
G1 X118.035 Y149.466 E52.57626
G1 X117.471 Y149.802 E52.60901
G1 X116.869 Y150.066 E52.6418
G1 X116.24 Y150.256 E52.67458
G1 X115.593 Y150.367 E52.70734
G1 X115 Y150.4 E52.73697
G1 X85 Y150.4 E54.23367
G1 X84.344 Y150.36 E54.26646
G1 X83.698 Y150.241 E54.29923
G1 X83.071 Y150.044 E54.33202
G1 X82.473 Y149.772 E54.3648
G1 X81.912 Y149.43 E54.39758
G1 X81.397 Y149.022 E54.43036
G1 X80.935 Y148.555 E54.46313
G1 X80.534 Y148.035 E54.49589
G1 X80.198 Y147.471 E54.52864
G1 X79.934 Y146.869 E54.56144
G1 X79.744 Y146.24 E54.59422
G1 X79.633 Y145.593 E54.62697
G1 X79.6 Y145 E54.6566
G1 X79.6 Y115 E56.15331
G1 X79.64 Y114.344 E56.18609
G1 X79.759 Y113.698 E56.21887
G1 X79.956 Y113.071 E56.25165
G1 X80.228 Y112.473 E56.28443
G1 X80.57 Y111.912 E56.31721
G1 X80.978 Y111.397 E56.34999
G1 X81.445 Y110.935 E56.38276
G0 F3600 X81.836 Y111.129
G1 F1800 X82.35 Y110.76 E56.41433
G1 X82.906 Y110.46 E56.44585
G1 X83.495 Y110.232 E56.47736
G1 X84.109 Y110.08 E56.50892
G1 X85 Y110 E56.55355
G1 X115 Y110 E58.05025
G1 X115.631 Y110.04 E58.0818
G1 X116.252 Y110.159 E58.11334
G1 X116.852 Y110.356 E58.14485
G1 X117.424 Y110.627 E58.17643
G1 X117.956 Y110.967 E58.20793
G1 X118.441 Y111.373 E58.23948
G1 X118.871 Y111.836 E58.27101
G1 X119.24 Y112.35 E58.30257
G1 X119.54 Y112.906 E58.33409
G1 X119.768 Y113.495 E58.3656
G1 X119.92 Y114.109 E58.39716
G1 X120 Y115 E58.44179
G1 X120 Y145 E59.9385
G1 X119.96 Y145.631 E59.97004
G1 X119.841 Y146.252 E60.00159
G1 X119.644 Y146.852 E60.03309
G1 X119.373 Y147.424 E60.06467
G1 X119.033 Y147.956 E60.09617
G1 X118.627 Y148.441 E60.12773
G1 X118.164 Y148.871 E60.15925
G1 X117.65 Y149.24 E60.19082
G1 X117.094 Y149.54 E60.22234
G1 X116.505 Y149.768 E60.25385
G1 X115.891 Y149.92 E60.2854
G1 X115 Y150 E60.33004
G1 X85 Y150 E61.82674
G1 X84.369 Y149.96 E61.85829
G1 X83.748 Y149.841 E61.88983
G1 X83.148 Y149.644 E61.92134
G1 X82.576 Y149.373 E61.95292
G1 X82.044 Y149.033 E61.98441
G1 X81.559 Y148.627 E62.01597
G1 X81.129 Y148.164 E62.04749
G1 X80.76 Y147.65 E62.07906
G1 X80.46 Y147.094 E62.11058
G1 X80.232 Y146.505 E62.14209
G1 X80.08 Y145.891 E62.17365
G1 X80 Y145 E62.21828
G1 X80 Y115 E63.71499
G1 X80.04 Y114.369 E63.74653
G1 X80.159 Y113.748 E63.77808
G1 X80.356 Y113.148 E63.80958
G1 X80.627 Y112.576 E63.84116
G1 X80.967 Y112.044 E63.87266
G1 X81.373 Y111.559 E63.90421
G1 X81.836 Y111.129 E63.93574
G0 F3600 X82.225 Y111.331
G1 F1800 X82.732 Y110.998 E63.966
G1 X83.278 Y110.734 E63.99626
G1 X83.854 Y110.545 E64.0265
G1 X84.45 Y110.433 E64.05676
G1 X85 Y110.4 E64.08425
G1 X115 Y110.4 E65.58095
G1 X115.605 Y110.44 E65.6112
G1 X116.199 Y110.559 E65.64143
G1 X116.773 Y110.755 E65.67169
G1 X117.316 Y111.026 E65.70196
G1 X117.819 Y111.365 E65.73223
G1 X118.272 Y111.767 E65.76244
G1 X118.669 Y112.225 E65.79268
G1 X119.002 Y112.732 E65.82294
G1 X119.266 Y113.278 E65.8532
G1 X119.455 Y113.854 E65.88344
G1 X119.567 Y114.45 E65.9137
G1 X119.6 Y115 E65.94119
G1 X119.6 Y145 E67.43789
G1 X119.56 Y145.605 E67.46814
G1 X119.441 Y146.199 E67.49837
G1 X119.245 Y146.773 E67.52863
G1 X118.974 Y147.316 E67.5589
G1 X118.635 Y147.819 E67.58917
G1 X118.233 Y148.272 E67.61938
G1 X117.775 Y148.669 E67.64962
G1 X117.268 Y149.002 E67.67988
G1 X116.722 Y149.266 E67.71014
G1 X116.146 Y149.455 E67.74039
G1 X115.55 Y149.567 E67.77064
G1 X115 Y149.6 E67.79813
