;FLAVOR:Marlin
;TIME:5025
;Filament used: 3.87864m
;Layer height: 0.2
;Generated with Cura_SteamEngine 3.6.0
M140 S50
M105
M190 S50
M104 S210
M105
M109 S210
M82 ;absolute extrusion mode
G21 ;metric values
G90 ;absolute positioning
M82 ;set extruder to absolute mode
;M107 ;start with the fan off
M106 ;fan on since the beginning instead
G28 X0 Y0 ;move X/Y to min endstops
G28 Z0 ;move Z to min endstops
G29 ; auto leveling
G1 Z15.0 F9000 ;move the platform down 15mm
G92 E0 ;zero the extruded length
G1 F200 E3 ;extrude 3mm of feed stock
G92 E0 ;zero the extruded length again
G1 F9000
;Put printing message on LCD screen
M117 ~Printing...
G92 E0
G1 F1500 E-6.5
;LAYER_COUNT:240
;LAYER:0
M107
G0 F3600 X61.772 Y49.451 Z0.3
;TYPE:SKIRT
G1 F1500 E0
G1 X62.563 Y48.64 E0.05652
G1 X63.139 Y48.129 E0.09493
G1 X63.755 Y47.636 E0.1343
G1 X64.418 Y47.207 E0.1737
G1 X65.122 Y46.848 E0.21312
G1 X65.689 Y46.619 E0.24363
G1 X66.184 Y46.442 E0.26986
G1 X66.94 Y46.215 E0.30924
G1 X67.715 Y46.064 E0.34863
G1 X68.332 Y46.002 E0.37957
G1 X92.463 Y44.52 E1.58573
G1 X93.229 Y44.51 E1.62395
G1 X95.18 Y44.582 E1.72136
G1 X96.158 Y44.68 E1.77039
G1 X97.957 Y44.976 E1.86135
G1 X98.674 Y45.129 E1.89793
G1 X99.602 Y45.373 E1.9458
G1 X100.262 Y45.579 E1.98029
G1 X101.886 Y46.164 E2.06641
G1 X102.531 Y46.429 E2.1012
G1 X103.4 Y46.833 E2.14901
G1 X104.216 Y47.273 E2.19526
G1 X106.417 Y48.635 E2.3244
G1 X107.24 Y49.221 E2.3748
G1 X108.201 Y50.004 E2.43664
G1 X108.812 Y50.558 E2.47779
G1 X110.163 Y51.92 E2.5735
G1 X110.833 Y52.69 E2.62442
G1 X112.083 Y54.333 E2.72742
G1 X112.622 Y55.142 E2.77592
G1 X113.161 Y56.071 E2.8295
G1 X113.522 Y56.773 E2.86889
G1 X113.81 Y57.508 E2.90827
G1 X114.023 Y58.269 E2.94769
G1 X114.11 Y58.718 E2.97051
G1 X114.189 Y59.198 E2.99478
G1 X114.278 Y59.983 E3.0342
G1 X114.287 Y60.773 E3.07361
G1 X114.216 Y61.559 E3.11299
G1 X114.139 Y62.008 E3.13571
G1 X114.05 Y62.449 E3.15816
G1 X113.855 Y63.214 E3.19754
G1 X113.583 Y63.956 E3.23697
G1 X113.108 Y64.894 E3.28943
G1 X112.481 Y65.948 E3.35061
G1 X111.974 Y66.697 E3.39574
G1 X110.88 Y68.128 E3.4856
G1 X110.352 Y68.748 E3.52623
G1 X109.424 Y69.73 E3.59364
G1 X108.824 Y70.301 E3.63496
G1 X107.472 Y71.457 E3.72371
G1 X106.634 Y72.082 E3.77586
G1 X104.737 Y73.307 E3.88852
G1 X103.945 Y73.755 E3.93392
G1 X102.815 Y74.31 E3.99673
G1 X102.025 Y74.645 E4.03954
G1 X100.153 Y75.321 E4.13883
G1 X99.123 Y75.615 E4.19227
G1 X97.026 Y76.06 E4.29922
G1 X96.036 Y76.205 E4.34914
G1 X94.379 Y76.339 E4.43208
G1 X93.291 Y76.35 E4.48636
G1 X68.509 Y74.888 E5.72489
G1 X67.724 Y74.802 E5.76429
G1 X66.809 Y74.597 E5.81107
G1 X66.191 Y74.419 E5.84316
G1 X65.444 Y74.163 E5.88255
G1 X64.727 Y73.832 E5.92195
G1 X64.047 Y73.43 E5.96136
G1 X63.643 Y73.144 E5.98606
G1 X63.166 Y72.783 E6.0159
G1 X62.561 Y72.275 E6.05531
G1 X62.011 Y71.708 E6.09472
G1 X61.521 Y71.089 E6.13411
G1 X61.252 Y70.686 E6.15828
G1 X60.935 Y70.177 E6.1882
G1 X60.552 Y69.487 E6.22757
G1 X60.241 Y68.761 E6.26698
G1 X60.001 Y67.993 E6.30712
G1 X59.876 Y67.506 E6.3322
G1 X59.719 Y66.732 E6.3716
G1 X59.631 Y65.576 E6.42944
G1 X59.619 Y55.438 E6.93523
G1 X59.658 Y54.65 E6.97459
G1 X59.803 Y53.745 E7.02032
G1 X59.939 Y53.13 E7.05174
G1 X60.148 Y52.368 E7.09116
G1 X60.434 Y51.632 E7.13056
G1 X60.7 Y51.093 E7.16054
G1 X60.884 Y50.754 E7.17979
G1 X61.295 Y50.08 E7.21917
G1 X61.772 Y49.451 E7.25856
G0 F3600 X62.104 Y49.678
G1 F1500 X62.828 Y48.939 E7.31017
G1 X63.404 Y48.428 E7.34859
G1 X64.005 Y47.949 E7.38693
G1 X64.653 Y47.534 E7.42532
G1 X65.34 Y47.188 E7.4637
G1 X65.823 Y46.996 E7.48963
G1 X66.318 Y46.819 E7.51585
G1 X67.055 Y46.598 E7.55424
G1 X67.811 Y46.455 E7.59263
G1 X68.356 Y46.401 E7.61995
G1 X92.487 Y44.919 E8.82612
G1 X93.214 Y44.91 E8.86239
G1 X95.165 Y44.982 E8.95979
G1 X96.093 Y45.075 E9.00632
G1 X97.892 Y45.371 E9.09728
G1 X98.573 Y45.516 E9.13202
G1 X99.501 Y45.76 E9.17989
G1 X100.127 Y45.955 E9.2126
G1 X101.751 Y46.54 E9.29872
G1 X102.363 Y46.792 E9.33174
G1 X103.232 Y47.196 E9.37955
G1 X104.006 Y47.613 E9.42341
G1 X106.207 Y48.975 E9.55255
G1 X106.987 Y49.531 E9.60033
G1 X107.948 Y50.314 E9.66218
G1 X108.528 Y50.84 E9.70124
G1 X109.879 Y52.202 E9.79695
G1 X110.514 Y52.932 E9.84522
G1 X111.764 Y54.575 E9.94822
G1 X112.276 Y55.342 E9.99423
G1 X112.815 Y56.271 E10.04781
G1 X113.166 Y56.956 E10.08621
G1 X113.444 Y57.673 E10.12458
G1 X113.716 Y58.783 E10.18159
G1 X113.795 Y59.263 E10.20586
G1 X113.88 Y60.028 E10.24426
G1 X113.886 Y60.797 E10.28263
G1 X113.747 Y61.929 E10.33953
G1 X113.658 Y62.37 E10.36197
G1 X113.467 Y63.115 E10.40034
G1 X113.199 Y63.836 E10.43872
G1 X112.764 Y64.689 E10.48649
G1 X112.137 Y65.743 E10.54768
G1 X111.656 Y66.454 E10.5905
G1 X110.562 Y67.885 E10.68037
G1 X110.061 Y68.474 E10.71895
G1 X109.133 Y69.456 E10.78635
G1 X108.564 Y69.997 E10.82552
G1 X107.212 Y71.153 E10.91427
G1 X106.417 Y71.746 E10.96375
G1 X104.52 Y72.971 E11.07641
G1 X103.768 Y73.396 E11.11951
G1 X102.638 Y73.951 E11.18231
G1 X101.889 Y74.269 E11.22291
G1 X100.017 Y74.945 E11.32221
G1 X99.04 Y75.224 E11.3729
G1 X96.943 Y75.669 E11.47985
G1 X96.003 Y75.806 E11.52724
G1 X94.346 Y75.94 E11.61018
G1 X93.314 Y75.951 E11.66167
G1 X68.532 Y74.489 E12.9002
G1 X67.768 Y74.404 E12.93855
G1 X66.92 Y74.213 E12.98192
G1 X66.302 Y74.035 E13.014
G1 X65.575 Y73.784 E13.05237
G1 X64.878 Y73.459 E13.09074
G1 X64.218 Y73.063 E13.12914
G1 X63.884 Y72.825 E13.1496
G1 X63.407 Y72.464 E13.17945
G1 X62.819 Y71.968 E13.21782
G1 X62.285 Y71.414 E13.25621
G1 X61.812 Y70.808 E13.29457
G1 X61.592 Y70.475 E13.31448
G1 X61.275 Y69.966 E13.34439
G1 X60.902 Y69.293 E13.38278
G1 X60.602 Y68.585 E13.42114
G1 X60.388 Y67.894 E13.45723
G1 X60.263 Y67.407 E13.48232
G1 X60.111 Y66.653 E13.52069
G1 X60.031 Y65.576 E13.57457
G1 X60.019 Y55.438 E14.08036
G1 X60.058 Y54.67 E14.11872
G1 X60.194 Y53.831 E14.16113
G1 X60.33 Y53.216 E14.19255
G1 X60.534 Y52.475 E14.2309
G1 X60.815 Y51.759 E14.26927
G1 X61.051 Y51.284 E14.29573
G1 X61.235 Y50.945 E14.31497
G1 X61.637 Y50.289 E14.35336
G1 X62.104 Y49.678 E14.39173
G0 F3600 X62.436 Y49.906
G1 F1500 X63.094 Y49.239 E14.43847
G1 X63.67 Y48.728 E14.47689
G1 X64.255 Y48.262 E14.5142
G1 X64.887 Y47.861 E14.55154
G1 X65.557 Y47.53 E14.58882
G1 X65.958 Y47.373 E14.61031
G1 X66.453 Y47.196 E14.63654
G1 X67.17 Y46.982 E14.67387
G1 X67.906 Y46.846 E14.71121
G1 X68.381 Y46.8 E14.73502
G1 X92.512 Y45.318 E15.94118
G1 X93.199 Y45.31 E15.97546
G1 X95.15 Y45.382 E16.07286
G1 X96.028 Y45.47 E16.11689
G1 X97.827 Y45.766 E16.20785
G1 X98.471 Y45.903 E16.24069
G1 X99.399 Y46.147 E16.28857
G1 X99.991 Y46.331 E16.31949
G1 X101.615 Y46.916 E16.40561
G1 X102.194 Y47.154 E16.43684
G1 X103.063 Y47.558 E16.48465
G1 X103.795 Y47.954 E16.52618
G1 X105.996 Y49.316 E16.65531
G1 X106.735 Y49.841 E16.70053
G1 X107.696 Y50.624 E16.76238
G1 X108.244 Y51.121 E16.79929
G1 X109.595 Y52.483 E16.895
G1 X110.196 Y53.175 E16.94072
G1 X111.446 Y54.818 E17.04372
G1 X111.93 Y55.543 E17.08721
G1 X112.469 Y56.472 E17.14079
G1 X112.809 Y57.138 E17.1781
G1 X113.076 Y57.837 E17.21543
G1 X113.321 Y58.848 E17.26733
G1 X113.4 Y59.328 E17.2916
G1 X113.482 Y60.072 E17.32894
G1 X113.484 Y60.82 E17.36626
G1 X113.355 Y61.85 E17.41805
G1 X113.266 Y62.291 E17.44049
G1 X113.079 Y63.015 E17.4778
G1 X112.816 Y63.715 E17.51511
G1 X112.42 Y64.485 E17.5583
G1 X111.793 Y65.539 E17.61949
G1 X111.338 Y66.211 E17.65998
G1 X110.244 Y67.642 E17.74984
G1 X109.771 Y68.199 E17.7863
G1 X108.843 Y69.181 E17.85371
G1 X108.304 Y69.693 E17.8908
G1 X106.952 Y70.849 E17.97954
G1 X106.2 Y71.409 E18.02632
G1 X104.303 Y72.634 E18.13898
G1 X103.592 Y73.037 E18.17975
G1 X102.462 Y73.592 E18.24256
G1 X101.754 Y73.893 E18.28094
G1 X99.882 Y74.569 E18.38024
G1 X98.957 Y74.833 E18.42823
G1 X96.86 Y75.278 E18.53518
G1 X95.971 Y75.407 E18.58
G1 X94.314 Y75.541 E18.66294
G1 X93.338 Y75.552 E18.71163
G1 X68.556 Y74.09 E19.95016
G1 X67.812 Y74.006 E19.98751
G1 X67.031 Y73.829 E20.02747
G1 X66.413 Y73.651 E20.05955
G1 X65.706 Y73.405 E20.0969
G1 X65.029 Y73.086 E20.13424
G1 X64.126 Y72.506 E20.18778
G1 X63.649 Y72.145 E20.21762
G1 X63.077 Y71.662 E20.25497
G1 X62.56 Y71.121 E20.29231
G1 X61.931 Y70.264 E20.34534
G1 X61.614 Y69.755 E20.37526
G1 X61.253 Y69.099 E20.41262
G1 X60.964 Y68.409 E20.44994
G1 X60.776 Y67.794 E20.48202
G1 X60.651 Y67.307 E20.50711
G1 X60.504 Y66.574 E20.5444
G1 X60.431 Y65.575 E20.59438
G1 X60.419 Y55.437 E21.10016
G1 X60.458 Y54.69 E21.13748
G1 X60.584 Y53.918 E21.17651
G1 X60.72 Y53.303 E21.20793
G1 X60.92 Y52.582 E21.24526
G1 X61.197 Y51.887 E21.28259
G1 X61.403 Y51.475 E21.30557
G1 X61.587 Y51.136 E21.32481
G1 X61.978 Y50.498 E21.36214
G1 X62.436 Y49.906 E21.39949
G0 F3600 X62.766 Y50.135
G1 F1500 X63.359 Y49.538 E21.44147
G1 X63.935 Y49.027 E21.47988
G1 X64.504 Y48.575 E21.51614
G1 X65.119 Y48.189 E21.55236
G1 X66.093 Y47.749 E21.60568
G1 X66.588 Y47.572 E21.63191
G1 X67.284 Y47.366 E21.66812
G1 X67.999 Y47.237 E21.70437
G1 X68.405 Y47.199 E21.72471
G1 X92.536 Y45.717 E22.93088
G1 X93.184 Y45.709 E22.96321
G1 X95.135 Y45.781 E23.06062
G1 X95.964 Y45.865 E23.10219
G1 X97.763 Y46.161 E23.19315
G1 X98.369 Y46.29 E23.22406
G1 X99.297 Y46.534 E23.27193
G1 X99.856 Y46.708 E23.30114
G1 X101.48 Y47.293 E23.38725
G1 X102.025 Y47.517 E23.41665
G1 X102.894 Y47.921 E23.46446
G1 X103.585 Y48.294 E23.50364
G1 X105.786 Y49.656 E23.63277
G1 X106.482 Y50.151 E23.67538
G1 X107.443 Y50.934 E23.73722
G1 X107.96 Y51.403 E23.77205
G1 X109.311 Y52.765 E23.86776
G1 X109.878 Y53.417 E23.91087
G1 X111.128 Y55.06 E24.01386
G1 X111.584 Y55.744 E24.05488
G1 X112.123 Y56.673 E24.10846
G1 X112.452 Y57.32 E24.14467
G1 X112.708 Y58 E24.18092
G1 X112.926 Y58.913 E24.22775
G1 X113.005 Y59.393 E24.25202
G1 X113.084 Y60.115 E24.28826
G1 X113.082 Y60.842 E24.32453
G1 X112.963 Y61.771 E24.37125
G1 X112.874 Y62.212 E24.3937
G1 X112.691 Y62.915 E24.42994
G1 X112.432 Y63.593 E24.46615
G1 X112.076 Y64.28 E24.50475
G1 X111.449 Y65.334 E24.56594
G1 X111.02 Y65.968 E24.60413
G1 X109.926 Y67.399 E24.694
G1 X109.48 Y67.924 E24.72836
G1 X108.552 Y68.906 E24.79577
G1 X108.044 Y69.389 E24.83074
G1 X106.692 Y70.545 E24.91949
G1 X105.983 Y71.073 E24.96359
G1 X104.086 Y72.298 E25.07625
G1 X103.416 Y72.678 E25.11468
G1 X102.286 Y73.233 E25.17749
G1 X101.618 Y73.517 E25.2137
G1 X99.746 Y74.193 E25.313
G1 X98.874 Y74.441 E25.35823
G1 X96.777 Y74.886 E25.46518
G1 X95.939 Y75.009 E25.50743
G1 X94.282 Y75.143 E25.59037
G1 X93.361 Y75.153 E25.63632
G1 X68.579 Y73.691 E26.87485
G1 X67.858 Y73.608 E26.91106
G1 X67.141 Y73.444 E26.94776
G1 X66.523 Y73.266 E26.97984
G1 X65.837 Y73.027 E27.01608
G1 X65.182 Y72.714 E27.0523
G1 X64.367 Y72.187 E27.10072
G1 X63.89 Y71.826 E27.13057
G1 X63.336 Y71.356 E27.16681
G1 X62.837 Y70.829 E27.20302
G1 X62.271 Y70.052 E27.25098
G1 X61.954 Y69.543 E27.2809
G1 X61.604 Y68.906 E27.31716
G1 X61.327 Y68.235 E27.35337
G1 X61.163 Y67.695 E27.38153
G1 X61.038 Y67.208 E27.40661
G1 X60.897 Y66.495 E27.44287
G1 X60.831 Y65.575 E27.48889
G1 X60.819 Y55.437 E27.99468
G1 X60.858 Y54.712 E28.0309
G1 X60.975 Y54.004 E28.0667
G1 X61.111 Y53.389 E28.09813
G1 X61.306 Y52.689 E28.13438
G1 X61.578 Y52.016 E28.17059
G1 X61.754 Y51.666 E28.19014
G1 X61.938 Y51.327 E28.20938
G1 X62.319 Y50.708 E28.24565
G1 X62.766 Y50.135 E28.2819
G0 F3600 X63.096 Y50.366
G1 F1500 X63.624 Y49.837 E28.31919
G1 X64.2 Y49.326 E28.35761
G1 X64.753 Y48.89 E28.39274
G1 X65.351 Y48.518 E28.42787
G1 X66.227 Y48.126 E28.47575
G1 X66.722 Y47.949 E28.50198
G1 X67.398 Y47.75 E28.53714
G1 X68.43 Y47.599 E28.58917
G1 X92.561 Y46.117 E29.79534
G1 X93.17 Y46.109 E29.82573
G1 X95.121 Y46.181 E29.92313
G1 X95.899 Y46.259 E29.96214
G1 X97.698 Y46.555 E30.0531
G1 X98.268 Y46.677 E30.08218
G1 X99.196 Y46.921 E30.13005
G1 X99.72 Y47.084 E30.15743
G1 X101.344 Y47.669 E30.24355
G1 X101.857 Y47.88 E30.27122
G1 X102.726 Y48.284 E30.31903
G1 X103.374 Y48.634 E30.35578
G1 X105.575 Y49.996 E30.48491
G1 X106.229 Y50.461 E30.52494
G1 X107.19 Y51.244 E30.58679
G1 X107.676 Y51.685 E30.61953
G1 X109.027 Y53.047 E30.71524
G1 X109.559 Y53.659 E30.75569
G1 X110.809 Y55.302 E30.85869
G1 X111.238 Y55.945 E30.89725
G1 X111.777 Y56.874 E30.95084
G1 X112.095 Y57.502 E30.98596
G1 X112.34 Y58.162 E31.02108
G1 X112.532 Y58.978 E31.0629
G1 X112.611 Y59.458 E31.08717
G1 X112.685 Y60.158 E31.12229
G1 X112.68 Y60.862 E31.15741
G1 X112.57 Y61.692 E31.19918
G1 X112.481 Y62.133 E31.22163
G1 X112.303 Y62.814 E31.25674
G1 X112.049 Y63.47 E31.29184
G1 X111.732 Y64.076 E31.32596
G1 X111.105 Y65.13 E31.38715
G1 X110.703 Y65.726 E31.42301
G1 X109.609 Y67.157 E31.51288
G1 X109.189 Y67.649 E31.54515
G1 X108.261 Y68.631 E31.61256
G1 X107.784 Y69.085 E31.64541
G1 X106.432 Y70.241 E31.73416
G1 X105.766 Y70.737 E31.77559
G1 X103.869 Y71.962 E31.88825
G1 X103.239 Y72.319 E31.92437
G1 X102.109 Y72.874 E31.98718
G1 X101.482 Y73.14 E32.02116
G1 X99.61 Y73.816 E32.12046
G1 X98.791 Y74.05 E32.16295
G1 X96.694 Y74.495 E32.2699
G1 X95.907 Y74.61 E32.30958
G1 X94.25 Y74.744 E32.39252
G1 X93.385 Y74.753 E32.43568
G1 X68.603 Y73.291 E33.67421
G1 X67.904 Y73.21 E33.70931
G1 X67.252 Y73.06 E33.74269
G1 X66.634 Y72.882 E33.77478
G1 X65.97 Y72.649 E33.80989
G1 X65.336 Y72.342 E33.84503
G1 X64.608 Y71.868 E33.88837
G1 X64.131 Y71.507 E33.91821
G1 X63.595 Y71.051 E33.95332
G1 X63.114 Y70.537 E33.98844
G1 X62.61 Y69.841 E34.03132
G1 X62.293 Y69.332 E34.06123
G1 X61.956 Y68.714 E34.09635
G1 X61.69 Y68.062 E34.13148
G1 X61.551 Y67.595 E34.15579
G1 X61.426 Y67.108 E34.18087
G1 X61.29 Y66.418 E34.21596
G1 X61.231 Y65.574 E34.25817
G1 X61.219 Y55.436 E34.76396
G1 X61.258 Y54.733 E34.79908
G1 X61.365 Y54.09 E34.83161
G1 X61.501 Y53.475 E34.86303
G1 X61.692 Y52.798 E34.89812
G1 X62.106 Y51.856 E34.94946
G1 X62.29 Y51.517 E34.9687
G1 X62.66 Y50.919 E35.00379
G1 X63.096 Y50.366 E35.03892
G0 F3600 X63.426 Y50.598
G1 F1500 X63.89 Y50.136 E35.07159
G1 X64.466 Y49.625 E35.11
G1 X65.001 Y49.204 E35.14397
G1 X65.582 Y48.849 E35.17793
G1 X66.362 Y48.503 E35.22051
G1 X66.857 Y48.326 E35.24673
G1 X67.511 Y48.134 E35.28074
G1 X68.454 Y47.998 E35.32827
G1 X92.585 Y46.516 E36.53444
G1 X93.155 Y46.509 E36.56288
G1 X95.106 Y46.581 E36.66028
G1 X95.834 Y46.654 E36.69678
G1 X97.633 Y46.95 E36.78774
G1 X98.166 Y47.064 E36.81494
G1 X99.094 Y47.308 E36.86281
G1 X99.585 Y47.46 E36.88845
G1 X101.209 Y48.045 E36.97457
G1 X101.688 Y48.243 E37.00043
G1 X102.557 Y48.647 E37.04824
G1 X103.164 Y48.974 E37.08264
G1 X105.365 Y50.336 E37.21177
G1 X105.977 Y50.772 E37.24926
G1 X106.938 Y51.555 E37.3111
G1 X107.392 Y51.966 E37.34165
G1 X108.743 Y53.328 E37.43736
G1 X109.241 Y53.901 E37.47524
G1 X110.491 Y55.544 E37.57823
G1 X110.892 Y56.145 E37.61428
G1 X111.431 Y57.074 E37.66786
G1 X111.737 Y57.682 E37.70182
G1 X111.97 Y58.322 E37.7358
G1 X112.137 Y59.043 E37.77272
G1 X112.216 Y59.523 E37.79699
G1 X112.287 Y60.2 E37.83095
G1 X112.278 Y60.881 E37.86493
G1 X112.178 Y61.612 E37.90174
G1 X112.089 Y62.053 E37.92419
G1 X111.916 Y62.712 E37.95818
G1 X111.666 Y63.345 E37.99213
G1 X111.389 Y63.871 E38.02179
G1 X110.762 Y64.925 E38.08298
G1 X110.385 Y65.483 E38.11657
G1 X109.291 Y66.914 E38.20644
G1 X108.898 Y67.375 E38.23666
G1 X107.97 Y68.357 E38.30407
G1 X107.524 Y68.781 E38.33477
G1 X106.172 Y69.937 E38.42352
G1 X105.549 Y70.401 E38.46227
G1 X103.652 Y71.626 E38.57493
G1 X103.063 Y71.96 E38.60871
G1 X101.933 Y72.515 E38.67152
G1 X101.346 Y72.764 E38.70333
G1 X99.474 Y73.44 E38.80263
G1 X98.708 Y73.659 E38.84238
G1 X96.611 Y74.104 E38.94933
G1 X95.875 Y74.211 E38.98643
G1 X94.218 Y74.345 E39.06937
G1 X93.408 Y74.354 E39.10978
G1 X68.626 Y72.892 E40.34831
G1 X67.95 Y72.812 E40.38227
G1 X67.363 Y72.675 E40.41235
G1 X66.745 Y72.497 E40.44443
G1 X66.103 Y72.271 E40.47839
G1 X65.491 Y71.971 E40.51239
G1 X64.85 Y71.549 E40.55068
G1 X64.373 Y71.188 E40.58052
G1 X63.855 Y70.746 E40.6145
G1 X63.392 Y70.246 E40.64849
G1 X62.95 Y69.629 E40.68636
G1 X62.633 Y69.12 E40.71628
G1 X62.307 Y68.522 E40.75026
G1 X62.054 Y67.89 E40.78422
G1 X61.938 Y67.496 E40.80471
G1 X61.813 Y67.009 E40.82979
G1 X61.683 Y66.341 E40.86375
G1 X61.631 Y65.574 E40.9021
G1 X61.619 Y55.436 E41.40789
G1 X61.658 Y54.756 E41.44187
G1 X61.756 Y54.177 E41.47117
G1 X61.892 Y53.562 E41.50259
G1 X62.078 Y52.907 E41.53656
